X:1
T:Lady Baird's Strathspey
T:Lady Baird [2]
M:C
L:1/16
R:Strathspey
B:Davies Caledonian Repository (Aberdeen, 1829-30, p. 16)
Z:AK/Fiddler’s Companion
K:A
a2|ec3c3B A3BA3F|F3AE3A F3AEa3|ec3c4B {B}A3GA3c|Be3e3^d e4 e2:|
=g2|fd3d3B c3de3c|dB3B3G A3Bc3E|F3AE3A F3AE3d|{d}c2.B.A {c}B2.A.G ABcd ef=ge|
fd3d3B c3de3c|DB3B3G A3Bc3E|(3F2A2A2 (3E2A2A2 (3F2A2A2 (3E2a2f2|(3e2c2A2 (3d2B2G2 {G}A4 A,2||

